assets/icons/static_dynamic_events/endurance.svg

<svg fill="none" height="28" viewBox="0 0 50 28" width="50" xmlns="http://www.w3.org/2000/svg"><path d="m45.4969 24.7909v-3.9h1.4392c1.6897 0 3.0639-1.3747 3.0639-3.0639l-.0004-7.7992c0-1.68935-1.3739-3.0643-3.0639-3.0643h-1.4392l.0004-3.89958c0-1.6886-1.375-3.06392-3.065-3.06392h-39.36798c-1.68973 0-3.06392 1.37504-3.06392 3.06392v21.72728c0 1.6886 1.37391 3.064 3.06392 3.064h39.36798c1.6897 0 3.065-1.3751 3.065-3.064zm-42.43364.2781c-.15347 0-.27891-.1247-.27891-.2781l.00037-21.72735c0-.15274.12544-.27818.27891-.27818h39.36797c.1538 0 .2789.12544.2789.27818v21.72735c0 .1534-.1247.2781-.2789.2781zm1.32338-20.42676v18.66256h36.49016v-18.66256z" fill="#525252"/></svg>

<svg width="50" height="28" viewBox="0 0 50 28" fill="none" xmlns="http://www.w3.org/2000/svg">
<path d="M45.4969 24.7909V20.8909H46.9361C48.6258 20.8909 50 19.5162 50 17.827L49.9996 10.0278C49.9996 8.33845 48.6257 6.9635 46.9357 6.9635H45.4965L45.4969 3.06392C45.4969 1.37532 44.1219 0 42.4319 0H3.06392C1.37419 0 0 1.37504 0 3.06392V24.7912C0 26.4798 1.37391 27.8552 3.06392 27.8552H42.4319C44.1216 27.8552 45.4969 26.4801 45.4969 24.7912V24.7909ZM3.06326 25.069C2.90979 25.069 2.78435 24.9443 2.78435 24.7909L2.78472 3.06355C2.78472 2.91081 2.91016 2.78537 3.06363 2.78537H42.4316C42.5854 2.78537 42.7105 2.91081 42.7105 3.06355V24.7909C42.7105 24.9443 42.5858 25.069 42.4316 25.069H3.06326ZM4.38664 4.64224V23.3048H40.8768V4.64224H4.38664Z" fill="#525252"/>
</svg>
